usr/share/icons/biglinux-icons-material/scalable/apps/gnome-chess.svg

<svg width="24" height="24" viewBox="0 0 24 24" fill="none" xmlns="http://www.w3.org/2000/svg">
<path fill-rule="evenodd" clip-rule="evenodd" d="M12.0009 1C11.3138 1.00018 10.6268 1.02278 9.93969 1.06779C9.83043 1.0996 9.71588 1.11486 9.59604 1.11359C8.8536 1.17326 8.12049 1.29157 7.39669 1.46852C4.2905 2.20701 2.33171 4.11908 1.52031 7.20471C1.14 8.77709 0.968176 10.3724 1.00483 11.9906C1.00477 11.994 1.0047 11.9974 1.00463 12.0009H12.0009V1Z" fill="#808080"/>
<path fill-rule="evenodd" clip-rule="evenodd" d="M1.00463 12.0009H11.9991V1C12.7484 0.99976 13.4976 1.02617 14.2467 1.07924C15.5484 1.18066 16.8085 1.46308 18.0269 1.9265C20.0525 2.76044 21.4386 4.2069 22.185 6.26586C22.6119 7.50549 22.8639 8.78021 22.9411 10.09C22.9824 10.7275 23.002 11.3645 22.9998 12.0009H12.0009V22.9998C10.5151 23.0063 9.04149 22.8592 7.57997 22.5585C4.26839 21.8208 2.22559 19.8018 1.45158 16.5017C1.12385 15.0195 0.974871 13.5192 1.00463 12.0009Z" fill="#F9F9F9"/>
<path fill-rule="evenodd" clip-rule="evenodd" d="M22.9998 12.0009C22.9964 13.0064 22.9386 14.0105 22.8265 15.0133C22.6895 16.1642 22.3917 17.271 21.933 18.3336C21.0824 20.1761 19.704 21.447 17.7978 22.1463C16.2531 22.6682 14.6647 22.943 13.0325 22.9706C12.6874 22.9886 12.3429 22.9983 11.9991 22.9998L11.9991 12.0009L22.9998 12.0009Z" fill="#808080"/>
<path d="M16.3588 17.7888V17.7888C16.3333 17.7888 16.3127 17.7682 16.3127 17.7428V17.62C16.3129 17.5681 16.3029 17.5167 16.2831 17.4686C16.2634 17.4206 16.2344 17.377 16.1978 17.3402C16.1611 17.3034 16.1176 17.2742 16.0696 17.2543C16.0217 17.2344 15.9703 17.2241 15.9184 17.2241V17.2241C15.8129 17.2241 15.7225 17.1462 15.7173 17.0408C15.709 16.8754 15.7198 16.7093 15.7496 16.5459C15.9613 15.5868 16.2222 14.6355 16.5199 13.701C17.0109 12.1619 17.3055 10.6243 16.8176 9.02695C16.2744 7.24235 15.1956 5.97641 13.3619 5.42706C13.2246 5.37523 13.1085 5.27912 13.032 5.15393C12.8511 4.84301 12.6288 4.55904 12.3718 4.30957C12.2215 4.16378 11.9664 4.2633 11.964 4.47262V4.47262C11.9625 4.67057 11.9702 4.86851 11.987 5.06339C12.0116 5.33653 11.9272 5.50072 11.6249 5.52527V5.52527C11.3291 5.54678 11.1982 5.86358 11.0961 6.14205C11.0412 6.29168 10.9066 6.34616 10.5768 6.47971C10.3942 6.55337 10.2009 6.60861 10.0321 6.70682C9.89613 6.79334 9.77491 6.9011 9.67304 7.02599C9.43059 7.30526 9.22804 7.62443 8.95797 7.87455C8.4209 8.37326 7.85775 8.84741 7.28846 9.31083C7.04294 9.51031 6.85574 9.69138 6.97849 10.0428C7.01379 10.144 6.96468 10.2791 6.9432 10.3957C6.87415 10.7594 7.18565 11.3824 7.52017 11.545C8.31196 11.9286 8.93495 11.8228 9.56102 11.1875C9.85871 10.8883 10.1825 10.7701 10.6014 10.9144C11.0542 11.0713 11.5145 11.196 12.0251 11.1635C12.1534 11.1553 12.2452 11.3222 12.1543 11.4131V11.4131C11.3686 12.211 10.6091 13.0335 10.0336 14.0033C9.57637 14.7736 9.20349 15.5838 9.21883 16.5014C9.22293 16.7147 9.2441 16.928 9.27255 17.1435C9.27807 17.1853 9.24565 17.2226 9.20349 17.2226V17.2226C9.15157 17.2226 9.10016 17.2328 9.05222 17.2528C9.00427 17.2727 8.96073 17.3019 8.92409 17.3386C8.88745 17.3754 8.85843 17.4191 8.8387 17.4671C8.81898 17.5151 8.80893 17.5666 8.80913 17.6185V17.7412C8.80913 17.7667 8.78852 17.7873 8.76309 17.7873V17.7873C8.51758 17.7873 8.31656 17.9868 8.31656 18.2353V19C8.31656 19.5523 8.76428 20 9.31656 20H15.8068C16.3591 20 16.8068 19.5523 16.8068 19V18.2353C16.807 18.1765 16.7956 18.1182 16.7731 18.0639C16.7506 18.0095 16.7176 17.9601 16.676 17.9186C16.6343 17.8771 16.5848 17.8442 16.5303 17.8219C16.4759 17.7997 16.4176 17.7884 16.3588 17.7888Z" fill="url(#paint0_linear_8_216)"/>
<defs>
<linearGradient id="paint0_linear_8_216" x1="12" y1="1" x2="12" y2="23" gradientUnits="userSpaceOnUse">
<stop stop-color="#777777"/>
<stop offset="1" stop-color="#181818"/>
</linearGradient>
</defs>
</svg>

<svg xmlns="http://www.w3.org/2000/svg" width="24" height="24" fill="none"><path fill="gray" fill-rule="evenodd" d="M12 1c-.686 0-1.373.023-2.06.068-.11.032-.224.047-.344.046-.742.06-1.476.178-2.2.355-3.106.738-5.064 2.65-5.876 5.736a18.491 18.491 0 0 0-.515 4.786V12H12V1Z" clip-rule="evenodd"/><path fill="#F9F9F9" fill-rule="evenodd" d="M1.005 12h10.994V1c.75 0 1.499.026 2.248.08 1.301.1 2.561.383 3.78.847 2.025.833 3.412 2.28 4.158 4.339.427 1.24.679 2.514.756 3.824.041.637.061 1.274.059 1.91H12v11c-1.485.006-2.959-.14-4.42-.442-3.312-.737-5.354-2.756-6.128-6.056A19.046 19.046 0 0 1 1.005 12Z" clip-rule="evenodd"/><path fill="gray" fill-rule="evenodd" d="M23 12a27.946 27.946 0 0 1-.174 3.013 11.876 11.876 0 0 1-.893 3.32c-.85 1.843-2.229 3.114-4.135 3.813a15.624 15.624 0 0 1-4.765.825c-.346.018-.69.027-1.034.029V12h11Z" clip-rule="evenodd"/><path fill="url(#a)" d="M16.359 17.789a.046.046 0 0 1-.046-.046v-.123a.393.393 0 0 0-.395-.396.197.197 0 0 1-.2-.183 2.156 2.156 0 0 1 .032-.495c.211-.96.472-1.91.77-2.845.49-1.54.785-3.077.298-4.674-.544-1.785-1.622-3.05-3.456-3.6a.66.66 0 0 1-.33-.273 3.934 3.934 0 0 0-.66-.844c-.15-.146-.406-.047-.408.163-.002.198.006.396.023.59.025.274-.06.438-.362.462-.296.022-.427.339-.529.617-.055.15-.19.204-.52.338-.182.073-.375.129-.544.227a1.508 1.508 0 0 0-.359.319c-.242.28-.445.598-.715.849-.537.498-1.1.972-1.67 1.436-.245.2-.432.38-.31.732.036.101-.013.236-.035.353-.069.363.243.986.577 1.149.792.384 1.415.278 2.041-.357.298-.3.621-.418 1.04-.274.453.157.913.282 1.424.25.128-.009.22.158.13.25-.786.797-1.546 1.62-2.121 2.59-.458.77-.83 1.58-.815 2.497.004.214.025.427.054.642a.07.07 0 0 1-.07.08.393.393 0 0 0-.394.396v.122c0 .026-.02.046-.046.046-.245 0-.446.2-.446.448V19a1 1 0 0 0 1 1h6.49a1 1 0 0 0 1-1v-.765a.444.444 0 0 0-.448-.446Z"/><defs><linearGradient id="a" x1="12" x2="12" y1="1" y2="23" gradientUnits="userSpaceOnUse"><stop stop-color="#777"/><stop offset="1" stop-color="#181818"/></linearGradient></defs></svg>
